doc/netwatch-notify.d/notification-01-down.svg

<?xml version="1.0" encoding="UTF-8" standalone="no"?>
<svg
   width="463.77954"
   height="93.779518"
   viewBox="0 0 122.70834 24.812492"
   version="1.1"
   id="svg8"
   inkscape:version="1.1 (c4e8f9ed74, 2021-05-24)"
   sodipodi:docname="netwatch-notify-down.svg"
   inkscape:export-filename="logo.png"
   inkscape:export-xdpi="96"
   inkscape:export-ydpi="96"
   xmlns:inkscape="http://www.inkscape.org/namespaces/inkscape"
   xmlns:sodipodi="http://sodipodi.sourceforge.net/DTD/sodipodi-0.dtd"
   xmlns="http://www.w3.org/2000/svg"
   xmlns:svg="http://www.w3.org/2000/svg"
   xmlns:rdf="http://www.w3.org/1999/02/22-rdf-syntax-ns#"
   xmlns:cc="http://creativecommons.org/ns#"
   xmlns:dc="http://purl.org/dc/elements/1.1/">
  <defs
     id="defs2">
    <rect
       x="180"
       y="0"
       width="658.20044"
       height="397.81946"
       id="rect4813" />
  </defs>
  <sodipodi:namedview
     id="base"
     pagecolor="#ffffff"
     bordercolor="#666666"
     borderopacity="1.0"
     inkscape:pageopacity="0.0"
     inkscape:pageshadow="2"
     inkscape:zoom="1.52"
     inkscape:cx="89.144737"
     inkscape:cy="90.789474"
     inkscape:document-units="px"
     inkscape:current-layer="layer1"
     inkscape:document-rotation="0"
     showgrid="true"
     units="px"
     inkscape:window-width="1920"
     inkscape:window-height="1047"
     inkscape:window-x="0"
     inkscape:window-y="33"
     inkscape:window-maximized="1"
     inkscape:pagecheckerboard="0"
     fit-margin-top="0"
     fit-margin-left="0"
     fit-margin-right="0"
     fit-margin-bottom="0">
    <inkscape:grid
       type="xygrid"
       id="grid833"
       originx="16.375006"
       originy="11.083327" />
  </sodipodi:namedview>
  <metadata
     id="metadata5">
    <rdf:RDF>
      <cc:Work
         rdf:about="">
        <dc:format>image/svg+xml</dc:format>
        <dc:type
           rdf:resource="http://purl.org/dc/dcmitype/StillImage" />
      </cc:Work>
    </rdf:RDF>
  </metadata>
  <g
     inkscape:label="Layer 1"
     inkscape:groupmode="layer"
     id="layer1"
     transform="translate(16.374999,11.083332)">
    <rect
       style="fill:#e6e6e6;stroke:#6c5d53;stroke-width:1;stroke-linecap:round;stroke-linejoin:round;stroke-opacity:1"
       id="rect857"
       width="121.70833"
       height="23.812496"
       x="-15.875"
       y="-10.583333"
       rx="1.5213542" />
    <g
       id="g884"
       transform="matrix(0.5,0,0,0.5,-12.40625,-7.1145834)"
       style="stroke-width:2">
      <path
         sodipodi:type="star"
         style="fill:#ffffff;fill-opacity:1;stroke:none;stroke-width:0.264584;stroke-linecap:round;stroke-linejoin:round;stroke-opacity:1"
         id="path899"
         sodipodi:sides="4"
         sodipodi:cx="12.700001"
         sodipodi:cy="12.700001"
         sodipodi:r1="14.81729"
         sodipodi:r2="10.477405"
         sodipodi:arg1="0.78539816"
         sodipodi:arg2="1.5707963"
         inkscape:flatsided="true"
         inkscape:rounded="0.2"
         inkscape:randomized="0"
         d="m 23.177407,23.177407 c -2.963458,2.963458 -17.9913546,2.963458 -20.9548127,0 -2.96345803,-2.963458 -2.96345808,-17.9913546 0,-20.9548127 2.963458,-2.96345803 17.9913547,-2.96345808 20.9548127,0 2.963458,2.963458 2.963458,17.9913547 0,20.9548127 z" />
      <g
         id="g871"
         style="stroke-width:2">
        <g
           aria-label="#!rsc"
           id="text837">
          <path
             d="M 7.483197,16.645533 V 15.621671 H 6.9371377 l 0.165768,-1.277388 H 5.8255169 l -0.165768,1.277388 h -0.975106 l 0.165768,-1.277388 H 3.5730221 l -0.165768,1.277388 H 2.7051778 v 1.023862 H 3.2707393 L 3.0269628,18.517736 H 2.3443886 v 1.023861 H 2.890448 L 2.7051778,20.935999 H 3.9825666 L 4.1678368,19.541597 H 5.1429427 L 4.9576726,20.935999 H 6.2350614 L 6.4203315,19.541597 H 7.1224078 V 18.517736 H 6.5568464 l 0.2437764,-1.872203 z m -2.2037394,1.872203 h -0.975106 l 0.2437765,-1.872203 h 0.975106 z"
             style="stroke-width:0.529163px"
             id="path851" />
          <path
             d="m 9.6186715,14.178515 h -1.638178 l 0.1950212,4.270964 h 1.2481356 z m -0.819089,5.15831 c -0.487553,0 -0.8775954,0.399794 -0.8775954,0.877596 0,0.487552 0.3900424,0.887346 0.8775954,0.887346 0.497304,0 0.8873464,-0.399794 0.8873464,-0.887346 0,-0.477802 -0.3900424,-0.877596 -0.8873464,-0.877596 z"
             style="stroke-width:0.529163px"
             id="path853" />
          <path
             d="m 13.372827,15.61192 c -0.594815,0 -1.10187,0.429047 -1.335895,1.150625 l -0.136515,-1.004359 h -1.335895 v 5.177813 h 1.540667 v -2.603533 c 0.175519,-0.770334 0.438798,-1.228633 1.072617,-1.228633 0.165768,0 0.302283,0.02925 0.468051,0.06826 l 0.243776,-1.491912 c -0.175519,-0.04875 -0.321785,-0.06826 -0.516806,-0.06826 z"
             style="stroke-width:0.529163px"
             id="path855" />
          <path
             d="m 16.181119,15.592418 c -1.306642,0 -2.11598,0.692326 -2.11598,1.579672 0,0.799587 0.507055,1.326144 1.530916,1.618676 0.936102,0.263278 1.092119,0.37054 1.092119,0.721578 0,0.312034 -0.282781,0.487553 -0.750832,0.487553 -0.507055,0 -0.984857,-0.204772 -1.374899,-0.507055 l -0.750832,0.838591 c 0.507055,0.4583 1.267638,0.770334 2.164736,0.770334 1.287139,0 2.30125,-0.633819 2.30125,-1.706435 0,-0.926351 -0.575313,-1.355398 -1.599174,-1.64793 -0.926351,-0.273029 -1.062866,-0.390042 -1.062866,-0.663072 0,-0.234025 0.204773,-0.390042 0.624068,-0.390042 0.448549,0 0.877595,0.146266 1.277389,0.399793 l 0.565561,-0.867844 C 17.604773,15.836195 16.93195,15.592418 16.181119,15.592418 Z"
             style="stroke-width:0.529163px"
             id="path857" />
          <path
             d="m 21.280919,15.592418 c -1.550418,0 -2.535275,1.150625 -2.535275,2.798554 0,1.638178 0.975106,2.710795 2.564528,2.710795 0.711828,0 1.267638,-0.234026 1.74544,-0.614317 l -0.672823,-0.955604 c -0.37054,0.234026 -0.624068,0.351038 -0.994608,0.351038 -0.614317,0 -1.023861,-0.351038 -1.023861,-1.501663 0,-1.160376 0.380291,-1.608925 1.043363,-1.608925 0.351038,0 0.653321,0.117013 0.984857,0.370541 l 0.663072,-0.9166 c -0.497304,-0.419295 -1.053114,-0.633819 -1.774693,-0.633819 z"
             style="stroke-width:0.529163px"
             id="path859" />
        </g>
        <g
           id="g1542"
           transform="matrix(2,0,0,2,-0.41134438,3.175)"
           style="stroke-width:1">
          <path
             d="M 4.9596016,-1.0195918 C 5.3675734,1.8116029 6.8867822,3.5302649 9.983482,3.6714361 7.0655129,4.7878541 4.0581782,2.1638833 4.9596016,-1.0195918"
             style="fill:#676867;fill-rule:evenodd;stroke-width:0.264582"
             id="path943" />
          <path
             d="m 3.3406657,-0.52095963 c 0.034969,-0.00777 0.038854,0.015542 0.041445,0.041445 C 3.4805417,1.3259222 4.2420891,2.6948942 5.2510098,3.6312866 6.2599306,4.5676787 7.6146558,5.3253406 9.525,5.2916667 5.9477993,6.7163303 2.1879835,3.2932527 3.3393705,-0.52095963"
             style="fill:#676867;fill-rule:evenodd;stroke-width:0.264582"
             id="path945" />
        </g>
      </g>
    </g>
    <text
       xml:space="preserve"
       transform="matrix(0.26458333,0,0,0.26458333,-45.213525,-6.6039366)"
       id="text4811"
       style="font-style:normal;font-variant:normal;font-weight:normal;font-stretch:normal;font-size:12px;line-height:15px;font-family:'Fira Mono', 'Roboto Mono', monospace;-inkscape-font-specification:'Fira Mono, Roboto Mono, monospace, Normal';font-variant-ligatures:normal;font-variant-caps:normal;font-variant-numeric:normal;font-variant-east-asian:normal;text-align:start;letter-spacing:0px;word-spacing:0px;writing-mode:lr-tb;white-space:pre;shape-inside:url(#rect4813);fill:#000000;fill-opacity:1;stroke:none;stroke-width:1px;stroke-linecap:butt;stroke-linejoin:miter;stroke-opacity:1"
       x="-248.88142"
       y="0"><tspan
         x="180"
         y="10.85"
         id="tspan2277">[MikroTik] ❌ Netwatch Notify: example.com down
</tspan><tspan
         x="180"
         y="25.85"
         id="tspan2279">
</tspan><tspan
         x="180"
         y="40.85"
         id="tspan2281">The host 'example.com' (93.184.216.34) is down
</tspan><tspan
         x="180"
         y="55.85"
         id="tspan2283">since jun/08/2021 06:55:03.</tspan></text>
  </g>
</svg>

<?xml version="1.0" encoding="UTF-8"?>
<svg id="svg8" width="463.78" height="93.78" version="1.1" viewBox="0 0 122.71 24.812" xmlns="http://www.w3.org/2000/svg" xmlns:cc="http://creativecommons.org/ns#" xmlns:dc="http://purl.org/dc/elements/1.1/" xmlns:rdf="http://www.w3.org/1999/02/22-rdf-syntax-ns#">
 <metadata id="metadata5">
  <rdf:RDF>
   <cc:Work rdf:about="">
    <dc:format>image/svg+xml</dc:format>
    <dc:type rdf:resource="http://purl.org/dc/dcmitype/StillImage"/>
   </cc:Work>
  </rdf:RDF>
 </metadata>
 <g id="layer1" transform="translate(16.375 11.083)">
  <rect id="rect857" x="-15.875" y="-10.583" width="121.71" height="23.812" rx="1.5214" fill="#e6e6e6" stroke="#6c5d53" stroke-linecap="round" stroke-linejoin="round"/>
  <g id="g884" transform="matrix(.5 0 0 .5 -12.406 -7.1146)" stroke-width="2">
   <path id="path899" d="m23.177 23.177c-2.9635 2.9635-17.991 2.9635-20.955 0-2.9635-2.9635-2.9635-17.991 0-20.955 2.9635-2.9635 17.991-2.9635 20.955 0 2.9635 2.9635 2.9635 17.991 0 20.955z" fill="#fff"/>
   <g id="g871">
    <g id="text837" stroke-width=".52916px" aria-label="#!rsc">
     <path id="path851" d="m7.4832 16.646v-1.0239h-0.54606l0.16577-1.2774h-1.2774l-0.16577 1.2774h-0.97511l0.16577-1.2774h-1.2774l-0.16577 1.2774h-0.70208v1.0239h0.56556l-0.24378 1.8722h-0.68257v1.0239h0.54606l-0.18527 1.3944h1.2774l0.18527-1.3944h0.97511l-0.18527 1.3944h1.2774l0.18527-1.3944h0.70208v-1.0239h-0.56556l0.24378-1.8722zm-2.2037 1.8722h-0.97511l0.24378-1.8722h0.97511z"/>
     <path id="path853" d="m9.6187 14.179h-1.6382l0.19502 4.271h1.2481zm-0.81909 5.1583c-0.48755 0-0.8776 0.39979-0.8776 0.8776 0 0.48755 0.39004 0.88735 0.8776 0.88735 0.4973 0 0.88735-0.39979 0.88735-0.88735 0-0.4778-0.39004-0.8776-0.88735-0.8776z"/>
     <path id="path855" d="m13.373 15.612c-0.59482 0-1.1019 0.42905-1.3359 1.1506l-0.13652-1.0044h-1.3359v5.1778h1.5407v-2.6035c0.17552-0.77033 0.4388-1.2286 1.0726-1.2286 0.16577 0 0.30228 0.02925 0.46805 0.06826l0.24378-1.4919c-0.17552-0.04875-0.32178-0.06826-0.51681-0.06826z"/>
     <path id="path857" d="m16.181 15.592c-1.3066 0-2.116 0.69233-2.116 1.5797 0 0.79959 0.50706 1.3261 1.5309 1.6187 0.9361 0.26328 1.0921 0.37054 1.0921 0.72158 0 0.31203-0.28278 0.48755-0.75083 0.48755-0.50706 0-0.98486-0.20477-1.3749-0.50706l-0.75083 0.83859c0.50706 0.4583 1.2676 0.77033 2.1647 0.77033 1.2871 0 2.3012-0.63382 2.3012-1.7064 0-0.92635-0.57531-1.3554-1.5992-1.6479-0.92635-0.27303-1.0629-0.39004-1.0629-0.66307 0-0.23402 0.20477-0.39004 0.62407-0.39004 0.44855 0 0.8776 0.14627 1.2774 0.39979l0.56556-0.86784c-0.4778-0.39004-1.1506-0.63382-1.9015-0.63382z"/>
     <path id="path859" d="m21.281 15.592c-1.5504 0-2.5353 1.1506-2.5353 2.7986 0 1.6382 0.97511 2.7108 2.5645 2.7108 0.71183 0 1.2676-0.23403 1.7454-0.61432l-0.67282-0.9556c-0.37054 0.23403-0.62407 0.35104-0.99461 0.35104-0.61432 0-1.0239-0.35104-1.0239-1.5017 0-1.1604 0.38029-1.6089 1.0434-1.6089 0.35104 0 0.65332 0.11701 0.98486 0.37054l0.66307-0.9166c-0.4973-0.4193-1.0531-0.63382-1.7747-0.63382z"/>
    </g>
    <g id="g1542" transform="matrix(2 0 0 2 -.41134 3.175)" fill="#676867" fill-rule="evenodd" stroke-width=".26458">
     <path id="path943" d="m4.9596-1.0196c0.40797 2.8312 1.9272 4.5499 5.0239 4.691-2.918 1.1164-5.9253-1.5076-5.0239-4.691"/>
     <path id="path945" d="m3.3407-0.52096c0.034969-0.00777 0.038854 0.015542 0.041445 0.041445 0.098431 1.8054 0.85998 3.1744 1.8689 4.1108 1.0089 0.93639 2.3636 1.6941 4.274 1.6604-3.5772 1.4247-7.337-1.9984-6.1856-5.8126"/>
    </g>
   </g>
  </g>
  <text id="text4811" transform="matrix(.26458 0 0 .26458 -45.214 -6.6039)" x="-248.88142" fill="#000000" font-family="'Fira Mono', 'Roboto Mono', monospace" font-size="12px" letter-spacing="0px" stroke-width="1px" word-spacing="0px" style="font-variant-caps:normal;font-variant-east-asian:normal;font-variant-ligatures:normal;font-variant-numeric:normal;line-height:15px;shape-inside:url(#rect4813);white-space:pre" xml:space="preserve"><tspan id="tspan2277" x="180" y="10.85">[MikroTik] ❌ Netwatch Notify: example.com down
</tspan><tspan id="tspan2279" x="180" y="25.85">
</tspan><tspan id="tspan2281" x="180" y="40.85">The host 'example.com' (93.184.216.34) is down
</tspan><tspan id="tspan2283" x="180" y="55.85">since jun/08/2021 06:55:03.</tspan></text>
 </g>
</svg>
